website/public/logo.svg

<?xml version="1.0" encoding="UTF-8" standalone="no"?>
<!-- Created with Inkscape (http://www.inkscape.org/) -->

<svg
   width="1120"
   height="1120"
   version="1.1"
   viewBox="0 0 1120 1120"
   id="svg29"
   sodipodi:docname="reactter.svg"
   inkscape:version="1.2.2 (b0a84865, 2022-12-01)"
   xmlns:inkscape="http://www.inkscape.org/namespaces/inkscape"
   xmlns:sodipodi="http://sodipodi.sourceforge.net/DTD/sodipodi-0.dtd"
   xmlns:xlink="http://www.w3.org/1999/xlink"
   xmlns="http://www.w3.org/2000/svg"
   xmlns:svg="http://www.w3.org/2000/svg">
  <sodipodi:namedview
     id="namedview31"
     pagecolor="#ffffff"
     bordercolor="#000000"
     borderopacity="0.25"
     inkscape:showpageshadow="2"
     inkscape:pageopacity="0.0"
     inkscape:pagecheckerboard="0"
     inkscape:deskcolor="#d1d1d1"
     showgrid="false"
     inkscape:zoom="0.93856443"
     inkscape:cx="457.61376"
     inkscape:cy="1066.5224"
     inkscape:window-width="1280"
     inkscape:window-height="690"
     inkscape:window-x="0"
     inkscape:window-y="25"
     inkscape:window-maximized="1"
     inkscape:current-layer="g27" />
  <defs
     id="defs9">
    <linearGradient
       id="a"
       x1="32.39"
       x2="45.8"
       y1="10.39"
       y2="23.8"
       gradientTransform="matrix(1,0,0,-1,0,122)"
       gradientUnits="userSpaceOnUse">
      <stop
         stop-color="#1a237e"
         stop-opacity=".4"
         offset="0"
         id="stop2" />
      <stop
         stop-color="#1a237e"
         stop-opacity="0"
         offset="1"
         id="stop4" />
    </linearGradient>
    <linearGradient
       id="b-5"
       x1="1749.0057"
       x2="2927.3188"
       y1="-3430.6804"
       y2="-2750.3811"
       gradientTransform="matrix(0.26458,0,0,-0.26458,-200,32.28)"
       gradientUnits="userSpaceOnUse"
       xlink:href="#a" />
    <linearGradient
       id="linearGradient908"
       x1="240"
       x2="320"
       y1="160"
       y2="160"
       gradientTransform="translate(-5e-6)"
       gradientUnits="userSpaceOnUse"
       xlink:href="#a" />
    <inkscape:path-effect
       effect="fill_between_many"
       method="originald"
       linkedpaths="#path17,0,1|#path23,0,1|"
       id="path-effect2526" />
  </defs>
  <g
     transform="translate(200)"
     id="g27">
    <path
       d="m 240,960 c 53.33333,-53.33333 106.66667,-106.66667 160,-160 106.66667,106.66667 213.33333,213.3333 320,320 -106.66667,0 -213.33333,0 -320,0 -53.33333,-53.3333 -106.66667,-106.6667 -160,-160 z"
       fill="#01579b"
       id="path11"
       class="UnoptimicedTransforms"
       style="stroke:#01579b;stroke-opacity:1" />
    <path
       d="m 240,640 c 53.33333,-53.33333 106.66667,-106.66667 160,-160 106.66667,0 213.33333,0 320,0 C 613.33333,586.66667 506.66667,693.33333 400,800 346.66667,746.66667 293.33333,693.33333 240,640 Z"
       fill="#54c5f8"
       id="path13"
       class="UnoptimicedTransforms"
       style="stroke:#54c5f8;stroke-opacity:1" />
    <path
       d="M 80,800 C 133.33333,746.66667 186.66667,693.33333 240,640 293.33333,693.33333 346.66667,746.66667 400,800 346.66667,853.33333 293.33333,906.66667 240,960 186.66667,906.66667 133.33333,853.33333 80,800 Z"
       fill="#29b6f6"
       id="path15"
       class="UnoptimicedTransforms"
       style="stroke:#29b6f6;stroke-opacity:1" />
    <path
       d="M 0,800 C 0,560 0,320 0,80 c 80,80 160,160 240,240 0,80 0,160 0,240 C 160,640 80,720 0,800 Z"
       fill="#54c5f8"
       id="path17"
       sodipodi:nodetypes="ccccc"
       class="UnoptimicedTransforms"
       style="stroke:#54c5f8;stroke-opacity:1" />
    <path
       d="M 240,960 C 320,933.33333 400,906.66667 480,880 453.33333,853.33333 426.66667,826.66667 400,800 346.66667,853.33333 293.33333,906.66667 240,960 Z"
       fill="url(#b-5)"
       id="path19"
       style="fill:url(#b-5);stroke:#1a237e;stroke-opacity:0"
       class="UnoptimicedTransforms" />
    <path
       d="M 240,0 C 293.33333,160 346.66667,320 400,480 346.66667,426.66667 293.33333,373.33333 240,320 240,213.33333 240,106.66667 240,0 Z"
       fill="url(#linearGradient908)"
       id="path21"
       style="fill:url(#linearGradient908)"
       class="UnoptimicedTransforms" />
    <path
       d="m 240,0 c 0,106.66667 0,213.33333 0,320 C 160,240 80,160 0,80 80,53.333333 160,26.666667 240,0 Z"
       fill="#29b6f6"
       data-name="Capa 2"
       id="path23"
       sodipodi:nodetypes="cccc"
       class="UnoptimicedTransforms"
       style="stroke:#29b6f6;stroke-opacity:1" />
    <path
       d="m 720,480 c -106.66667,0 -213.33333,0 -320,0 C 346.66667,426.66667 293.33333,373.33333 240,320 240,213.33333 240,106.66667 240,0 400,160 560,320 720,480 Z"
       fill="#01579b"
       id="path25"
       class="UnoptimicedTransforms"
       style="stroke:#01579b;stroke-opacity:1" />
  </g>
</svg>

<svg width="1120" height="1120" xmlns="http://www.w3.org/2000/svg">
   <defs>
      <linearGradient x1="240" y1="960" x2="400" y2="800" id="a" gradientTransform="scale(.99999 1.00001)"
         gradientUnits="userSpaceOnUse">
         <stop offset="0%" />
         <stop stop-opacity="0" offset="1" style="stop-color:#01579b;stop-opacity:0" />
      </linearGradient>
   </defs>
   <path fill="#01579b" style="display:inline" d="M720 1120H400L240 960l160-160z" transform="translate(200)" />
   <path fill="#54c5f8" style="display:inline" d="m80 800 320-320h320L240 960 80 800z" transform="translate(200)" />
   <path fill="#29b6f6" style="display:inline" d="m80 800 160-160 160 160-160 160L80 800z" transform="translate(200)" />
   <path fill="url(#a)" style="fill:url(#a)" d="M400 800 240 960l240-80z" transform="translate(200)" />
   <path fill="#01579b" style="display:inline" d="M720 480H400L0 80 240 0l480 480z" transform="translate(200)" />
   <path fill="#54c5f8" d="M200 800V80L440 0v560L200 800z" />
   <path fill="#29b6f6" style="display:inline" d="M240 0v320L0 80z" transform="translate(200)" />
</svg>
